!!!OTL: EIN KIRCHLEIN STEHT IM BLAUEN
!!!ARE: Europa, Mitteleuropa, Deutschland
!!!SCT: B0279
!!!YEM: Copyright 1995, estate of Helmut Schaffrath.
**kern
*ICvox
*Ivox
*M4/4
*k[b-e-a-d-]
*A-:
{4e-
=1
4.cc
8cc
4cc
4b-
=2
4.b-
8a-
4a-}
{4e-
=3
4dd-
4dd-
8dd-
8cc
8ee-
8cc
=4
2b-
4r}
{4e-
=5
4.ee-
8ff
4ee-
4dd-
=6
2cc
8ee-
8dd-}
{8cc
8b-
=7
4.a-
8a-
8cc
8b-
8a-
8g
=8
2a-}
{2b-
=9
4cc
4cc
8ee-
8dd-
8b-
8cc
=10
2a-
4r}
==
!!!AGN: Stimmungs - Lied, Andacht
!!!ONB: ESAC (Essen Associative Code) Database: BOEHME
!!!AMT: simple quadruple
!!!AIN: vox
!!!EED: Helmut Schaffrath
!!!EEV: 1.0
*-
